X:1
T:Title
%%score { 1 | ( 2 3 ) }
L:1/8
Q:1/4=120
M:4/4
K:F
V:1 treble nm="Grand Piano"
V:2 bass 
V:3 bass 
V:1
 A4 G2 F2 | B4 A4 | G4 F4 | [Ec]8 | [Fc]4 [Af]2 [Bd]2 | [Ac]4 A2 F2 | [B,EG]4 [CFA]3 [EG] | %7
w: J.~E.~Gould * *|||||||
 [A,F]8 | [EG]4 [EG]2 [FA]2 | [GB]4 [FA]2 G2 | A4 A2 B2 | [CAc]8 | [FAc]4 [CFA]2 [A,CF]2 | %13
w: ||||||
 [CEG]4 [B,C]4 | [A,CF]2 A2 G2 E2 | F8 |] %16
w: |||
V:2
 [F,CF]4 [F,B,C]2 [F,A,C]2 | [F,DF]4 [F,CF]4 | [E,B,C]4 [F,A,C]4 | [C,G,]8 | %4
 [F,A,]4 [F,C]2 [F,F]2 | z4 [CF]2 z2 | C,4 z2 z B, | F,8 | [C,C]4 [C,C]2 [C,C]2 | %9
 [C,C]4 z2[K:treble] E2 | [F,CF]4 F2 G2 | F,8 | F,4 F,2 F,2 | C,4 E,4 | z2 C2 B,2 G,2 | [F,A,C]8 |] %16
V:3
 x8 | x8 | x8 | x8 | x8 | [F,F]4 F,2- [F,A,]2 | z4 C,4 | x8 | x8 | z4 [C,C]4[K:treble] | %10
 z4 [F,C]4 | x8 | x8 | x8 | F,4 [C,C]4 | x8 |] %16

